dist/img/icons/values/3.svg

<svg width="42" height="41" viewBox="0 0 42 41" fill="none" xmlns="http://www.w3.org/2000/svg">
<path d="M34.5641 23.9881C10.2862 17.7871 20.4064 4.45508 20.4064 4.45508C20.4064 4.45508 24.1629 8.33142 20.4891 16.329" stroke="#F7F7F6" stroke-width="2" stroke-miterlimit="10" stroke-linecap="round" stroke-linejoin="round"/>
<path d="M19.0829 18.7058C16.7651 21.7706 12.5125 23.5808 6.44922 23.9797" stroke="#F7F7F6" stroke-width="2" stroke-miterlimit="10" stroke-linecap="round" stroke-linejoin="round"/>
<path d="M6.44922 17.9795C30.7271 24.1805 20.607 37.5125 20.607 37.5125C20.607 37.5125 16.8505 33.6362 20.5243 25.6386" stroke="#F7F7F6" stroke-width="2" stroke-miterlimit="10" stroke-linecap="round" stroke-linejoin="round"/>
<path d="M22.1309 23.0055C24.49 20.0948 28.671 18.3781 34.5634 17.9902" stroke="#F7F7F6" stroke-width="2" stroke-miterlimit="10" stroke-linecap="round" stroke-linejoin="round"/>
<path d="M3.49145 30.0384C1.90397 27.2185 1 23.9639 1 20.5003C1 17.4355 1.70829 14.5386 2.97055 11.958" stroke="#F7F7F6" stroke-width="2" stroke-miterlimit="10" stroke-linecap="round" stroke-linejoin="round"/>
<path d="M38.099 11.9551C39.3613 14.5356 40.0696 17.4326 40.0696 20.4973C40.0696 23.961 39.1656 27.2156 37.5781 30.0355" stroke="#F7F7F6" stroke-width="2" stroke-miterlimit="10" stroke-linecap="round" stroke-linejoin="round"/>
<path d="M11.2656 3.48702C14.0906 1.90237 17.3509 1 20.8208 1C23.891 1 26.7931 1.70704 29.3783 2.96706" stroke="#F7F7F6" stroke-width="2" stroke-miterlimit="10" stroke-linecap="round" stroke-linejoin="round"/>
<path d="M29.3783 38.0327C26.7931 39.2927 23.891 39.9997 20.8208 39.9997C17.3509 39.9997 14.0906 39.0973 11.2656 37.5127" stroke="#F7F7F6" stroke-width="2" stroke-miterlimit="10" stroke-linecap="round" stroke-linejoin="round"/>
</svg>

<svg width="42" height="41" viewBox="0 0 42 41" fill="none" xmlns="http://www.w3.org/2000/svg"><path d="M34.564 23.988c-24.278-6.2-14.158-19.533-14.158-19.533s3.757 3.876.083 11.874m-1.406 2.377c-2.318 3.065-6.57 4.875-12.634 5.274" stroke="#F7F7F6" stroke-width="2" stroke-miterlimit="10" stroke-linecap="round" stroke-linejoin="round"/><path d="M6.45 17.98c24.277 6.2 14.157 19.533 14.157 19.533s-3.756-3.877-.083-11.874m1.606-2.633c2.36-2.911 6.541-4.628 12.433-5.016M3.491 30.038A19.384 19.384 0 011 20.5c0-3.064.708-5.961 1.97-8.542m35.129-.003a19.38 19.38 0 011.97 8.542c0 3.464-.903 6.719-2.49 9.538M11.266 3.487A19.473 19.473 0 0120.82 1c3.07 0 5.972.707 8.557 1.967m.001 35.066A19.473 19.473 0 0120.821 40c-3.47 0-6.73-.903-9.555-2.487" stroke="#F7F7F6" stroke-width="2" stroke-miterlimit="10" stroke-linecap="round" stroke-linejoin="round"/></svg>
